X:117
T: Jetzt fahr'n mer uebern See, vidrom,
N: D0174
O: Europa, Mitteleuropa, Deutschland, Untermainfranken, Spessart
N: Grundton ??; Inzipit = entfernte Variante zum Lied
R: Bauern - Lied
M: 2/4
L: 1/8
K: F
C | AAAB | cccA | BBBc | A2z
C | AAAB | cccA | BBBc | z2z
c | dcBA | B2G2 | BBdd | cA2
c | dcBA | B2Gc | cccB | A3

